packages/foundations/assets/icons/functional/images/transportation/bike_14.svg

<svg width="14" height="14" viewBox="0 0 14 14" fill="none" xmlns="http://www.w3.org/2000/svg">
<g clip-path="url(#clip0_187_835)">
<path fill-rule="evenodd" clip-rule="evenodd" d="M10.1654 4.08428C10.0064 4.11745 9.8468 4.14932 9.68659 4.17988L10.6002 7.10452C11.6575 7.11136 12.5125 7.97057 12.5125 9.02948C12.5125 10.0926 11.6506 10.9545 10.5875 10.9545C9.52434 10.9545 8.66249 10.0926 8.66249 9.02948C8.66249 8.33276 9.03262 7.72249 9.58698 7.38458L9.35759 6.64798L7.12999 8.99839C7.06166 9.0705 6.97876 9.12723 6.8868 9.16483C6.55452 9.30068 6.15098 9.16483 5.97396 8.78178C5.80538 8.37348 5.63825 7.96484 5.47259 7.55588L5.07342 8.05577C5.22265 8.30977 5.33749 8.64581 5.33749 9.02948C5.33749 10.0926 4.47564 10.9545 3.41249 10.9545C2.34934 10.9545 1.48749 10.0926 1.48749 9.02948C1.48749 7.96633 2.34934 7.10448 3.41249 7.10448C3.73748 7.10448 4.04366 7.18501 4.31217 7.32722L5.01829 6.44358L4.42959 5.00438L4.11249 5.00448C3.82254 5.00448 3.58749 4.76943 3.58749 4.47948C3.58749 4.21369 3.80538 3.95448 4.11249 3.95448C4.57797 3.95296 5.04355 3.95296 5.50923 3.95448C5.79918 3.95448 6.03423 4.18953 6.03423 4.47948C6.03423 4.74526 5.81403 5.00088 5.56219 5.00088C5.64785 5.2258 5.74118 5.45446 5.84219 5.68688L8.78219 4.80488L8.51133 3.93589C8.42559 3.6612 8.56185 3.34436 8.90953 3.26467C9.35759 3.17428 9.67521 3.11154 9.95953 3.05467C10.1654 3.01372 10.4853 3.1058 10.5653 3.4195C10.6765 3.85016 10.3252 4.05443 10.1654 4.08428ZM3.41249 8.15448C2.92924 8.15448 2.53749 8.54623 2.53749 9.02948C2.53749 9.51273 2.92924 9.90448 3.41249 9.90448C3.89574 9.90448 4.28749 9.51273 4.28749 9.02948C4.28749 8.54623 3.89574 8.15448 3.41249 8.15448ZM10.5875 8.15448C10.1042 8.15448 9.71249 8.54623 9.71249 9.02948C9.71249 9.51273 10.1042 9.90448 10.5875 9.90448C11.0707 9.90448 11.4625 9.51273 11.4625 9.02948C11.4625 8.54623 11.0707 8.15448 10.5875 8.15448ZM8.55259 5.97038L6.24189 6.66338L6.74029 7.88218L8.55259 5.97038Z" fill="#1A1C1F"/>
</g>
<defs>
<clipPath id="clip0_187_835">
<rect width="14" height="14" fill="white"/>
</clipPath>
</defs>
</svg>

<svg xmlns="http://www.w3.org/2000/svg" width="14" height="14" fill="none"><g clip-path="url(#a)"><path fill="#1A1C1F" fill-rule="evenodd" d="M10.165 4.084q-.238.05-.478.096l.913 2.925a1.925 1.925 0 1 1-1.013.28l-.23-.737-2.227 2.35a.7.7 0 0 1-.243.167c-.332.136-.736 0-.913-.383q-.254-.613-.501-1.226l-.4.5a1.925 1.925 0 1 1-.761-.729l.706-.883-.588-1.44h-.318a.525.525 0 1 1 0-1.05H5.51c.29 0 .525.236.525.525 0 .266-.22.522-.472.522q.13.337.28.686l2.94-.882-.27-.87a.518.518 0 0 1 .398-.67l1.05-.21c.205-.041.525.05.605.365.112.43-.24.634-.4.664m-6.753 4.07a.875.875 0 1 0 0 1.75.875.875 0 0 0 0-1.75m7.176 0a.875.875 0 1 0 0 1.75.875.875 0 0 0 0-1.75M8.553 5.97l-2.311.693.498 1.22z" clip-rule="evenodd"/></g><defs><clipPath id="a"><path fill="#fff" d="M0 0h14v14H0z"/></clipPath></defs></svg>
